!!!OTL: Die Brombeerpflueckerin Und wollt das Maderl in der Fruah aufstehn,
!!!ARE: Europa, Mitteleuropa, Deutschland, Bayer. Wald, Zwiesel
!!!SCT: D0139
!!!YEM: Copyright 1995, estate of Helmut Schaffrath.
**kern
*ICvox
*Ivox
*M6/8
*k[f#]
*G:
{8g
=1
4b
8b
8.dd
16dd
16b
16b
=2
4cc
8cc
4.dd}
=3
{4cc
8a
4dd
8cc
=4
4b
8b
4b}
{8g
=5
4b
8b
8.dd
16dd
8b
=6
4cc
8dd
4ff#}
{16ff#
16ff#
=7
4aa
16ff#
16ff#
4ff#
8ccc
=8
4bb
8gg
4dd}
{8b
=9
4cc
8dd
8.ff#
16dd
8cc
=10
4.b
4r}
==
!!!AGN: Ballade, Verfuehrung
!! Dreistimmig notiert ( hauptsaechlich in parallelen Terzen )
!!!ONB: ESAC (Essen Associative Code) Database: DVA
!!!AMT: compound duple
!!!AIN: vox
!!!EED: Helmut Schaffrath
!!!EEV: 1.0
*-
